!!!SOCIAL_FUNCTION:	misc songs
!!!PDT:	1936
!!!OTL: No_69_Where_Has_He_Gone?.krn
!!!REG: Oklahoma and Montana
!!!LANG: Tone
!!!LING_GROUP: Algonquin
**kern
*staff1
=1-
*clefF4
*k[b-]
*M3/4
2r
8.r
16c\
=2
8g\L
16g\L
16f\JJ
16g\LK
8.g\J
16g\LK
8.f\J
=3
*M2/4
8c\L
8c\J
8c\L
8c\J
=4
8c\L
8c\J
8c\
8r
=5
*M3/4
16f\LL
16f\J
8g\J
16f\LL
16f\J
8f\J
8.f\L
16d\Jk
=6
*M2/4
8f\L
16f\L
16f\JJ
16f\LK
8.e-\J
=7
*M3/4
8c\L
8c\J
8c\
32c\LLL
32G\JJJ
16r
8c\L
8c\J
=8
4c\
4c\
8r
8c\
=9
*M2/4
8c\
32c\LLL
32G\JJJ
16r
8c\L
8c\J
=10
16c\LK
8.G\J
4G\
=11
8F\L
8G\J
8G\L
16G\L
16F\JJ
=12
8G\L
8G\J
8G\L
8F\J
=13
2C/
==
*-
